assets/images/svg/add-service.svg

<svg width="13" height="13" viewBox="0 0 13 13" fill="none" xmlns="http://www.w3.org/2000/svg">
<path d="M7.58337 8.66681C7.58337 9.62556 7.16629 10.4922 6.50004 11.0826C5.92587 11.6026 5.16754 11.9168 4.33337 11.9168C2.54046 11.9168 1.08337 10.4597 1.08337 8.66681C1.08337 7.6644 1.54221 6.76644 2.25865 6.17105C2.49201 5.97713 2.82871 6.09798 2.98015 6.36091C3.51155 7.28355 4.39351 7.96939 5.42754 8.24973C5.76879 8.34723 6.12629 8.39598 6.50004 8.39598C6.72448 8.39598 6.94088 8.37788 7.15168 8.34412C7.36825 8.30945 7.58337 8.44748 7.58337 8.66681Z" fill="#00162E"/>
<path d="M9.75 4.33325C9.75 4.75575 9.66875 5.162 9.5225 5.53034C9.14875 6.47284 8.34708 7.19867 7.35583 7.4695C7.085 7.54534 6.79792 7.58325 6.5 7.58325C6.20208 7.58325 5.915 7.54534 5.64417 7.4695C4.65292 7.19867 3.85125 6.47284 3.4775 5.53034C3.33125 5.162 3.25 4.75575 3.25 4.33325C3.25 2.54034 4.70708 1.08325 6.5 1.08325C8.29292 1.08325 9.75 2.54034 9.75 4.33325Z" fill="#00162E"/>
<path d="M11.9167 8.66681C11.9167 10.4597 10.4596 11.9168 8.66671 11.9168C8.37466 11.9168 8.09065 11.8783 7.8208 11.8055C7.49162 11.7168 7.43055 11.3078 7.63102 11.032C8.12517 10.3523 8.39587 9.52626 8.39587 8.66681C8.39587 8.48264 8.37962 8.29848 8.35254 8.12514C8.33643 8.02523 8.38741 7.92701 8.47596 7.87799C9.11691 7.52316 9.6528 6.99957 10.02 6.36172C10.1715 6.09855 10.5085 5.97737 10.742 6.17151C11.4581 6.7669 11.9167 7.66466 11.9167 8.66681Z" fill="#00162E"/>
</svg>

<svg xmlns="http://www.w3.org/2000/svg" width="13" height="13" fill="none" viewBox="0 0 13 13"><path fill="#00162e" d="M7.583 8.667c0 .959-.417 1.825-1.083 2.416a3.2 3.2 0 0 1-2.167.834 3.253 3.253 0 0 1-3.25-3.25c0-1.003.46-1.9 1.176-2.496.233-.194.57-.073.721.19A4.06 4.06 0 0 0 5.428 8.25q.51.146 1.072.146.335 0 .652-.052c.216-.035.431.103.431.323"/><path fill="#00162e" d="M9.75 4.333a3.246 3.246 0 0 1-3.25 3.25A3.26 3.26 0 0 1 3.478 5.53 3.253 3.253 0 0 1 6.5 1.083a3.253 3.253 0 0 1 3.249 3.25M11.917 8.667a3.253 3.253 0 0 1-4.096 3.139c-.33-.09-.39-.498-.19-.774.494-.68.765-1.506.765-2.365 0-.184-.016-.369-.043-.542a.24.24 0 0 1 .123-.247 4.04 4.04 0 0 0 1.544-1.516c.152-.263.489-.385.722-.19a3.24 3.24 0 0 1 1.175 2.495"/></svg>
